-----BEGIN PGP PUBLIC KEY BLOCK-----

mQINBFVWzNwBEACnktEeoErOklAj7BYSsq9w6HnSDNXMjsDO2bowoZv1ChacZd6g
+imWn/rY7lF300aSGulIXqRlhBal98t3wYT6om7OKdr/eLLHR4AzjBwPPGJ3o5TU
j2lRv5gZ3mxOfzDfnCem6ncGdKz6AsTFFeoJXJygbpqqQQ6bzwp6tSw9POHfvVD2
EvVkvOpUVhiGWMQATWL4AYi0uOB040lf84pOgIcKjc18fXOVKkCtHDpqncWQ/asM
UywDiogd17vejIav3UgO/fE4U0IPGgGXyPV+IpQKjJrl4jdQELi52hCP4v+HBZJu
zLtk0N6JrFh0gDsvVhf20F0bPEW2N3563yCOjZzsSvYH7i6faVUNmJhp8Dqz1n0g
ug+ckmCrRCR1hK/gIgXk+nEKmTJrIogkGh52xL7FLKhs/l2nOl5KhE4C1X70E+bY
opDa0TKZlauDTC0lxl6pHYjVbV1B0Fv9m+yHC6cwSlrn61fbwTnF+u+ypoHNPy5Y
kSOGsQ+X5JRJZ+WpnUoIUKmCElNCzlVmzHcJLNwTKAMWKxCI4OVmJivhDjnfpOZS
LupbUajNCb5tqWPwMLPVOHJ0K4RGtcVTf/YR3aOGAyiW9jIE0Tyzu40aTM8k2H5A
DCntVKdoR5KtAYH1OtVIOm42D0oonMRAn8oNetyH+4FLx18xcjteGvptEwARAQAB
tB9QZXRlciBIb2dnIDxwZXRlckBoYXZlbmF1dC5uZXQ+iQI9BBMBCgAnBQJVVszc
AhsDBQkB4TOABQsJCAcDBRUKCQgLBRYCAwEAAh4BAheAAAoJEHCyIP+NKs8p00gP
/3tMjJZ3VjOxSVBvybMAoBpRZi+yaBe6piNmSQqIf6wzuhfdWaM5onGeewq9Rq+k
Ls4yr1pab0Hjj9ISyZ2r2TJdqyWnl98zr0rE7gqkMXzyofsmOhQgipeDLLmLrSbp
wXyJ09adWDKbvrJvSbHuN/KwzqzdkEhiLcqpOaLVSecJbOZ5s9V810n5/wpkfmF3
NepDN7DkKwTh2HxhYscBiOrs5evscJmUummzdqUmNk5ZJZ03/BUctWUDFjpOJGsO
jMdHj9ox1FgFdalxIPUaYRUS6lmdUqOXsuLQ/Ii8FxHy44hCPz9t5QAur61pauPK
JrfQVb/ji6AsWAN6iuRm56MSwz1v5VVhn52fJAqd4H0ZvNUtCiS0FW0LMG5/MjTY
lYX86U+NWiwdJwzpu7nDJ/d+nXcLGLEiEQHtyyiSiQXfphE1qMMoyOtd4jf3w66R
B5u2tSmJZWeeZUCABTgObwrnSHRNypN5F9xA+Vt3i/ZmuEVR1iQ5AKO7Va6+y0s8
OcVqJOREeypb+YixV9kbBJI6kG6Oaoo+T48ARIsmQ0nrTUzF/uIMUkBD7p/hgfvz
bhccSv9ZyoxR0VkxPOM5yk0EJ6yDyUcXk9aVO+d0o7+ILOIai77r0P09wwgC2iij
WzqNtskV+h+KUU/NlZZpkQWsefnRzrc1SmpdlMEIFLKXiQJXBBMBCgBBAhsDBQsJ
CAcDBRUKCQgLBRYCAwEAAh4BAheAAhkBFiEEUkkkEqEZD8CH6g8dcLIg/40qzykF
AmpgNMwFCRcLkPAACgkQcLIg/40qzyl+Wg//QFDkePoImCBTNYbRDzcJ7RQay4sE
D0l7QdomsCDQnncw69juQzW8I/3sbjoKnaT8eI88kY+euNNHDE+/hLWs7wnIxCpw
/eqElci70lv9uFq3zTjsTpjOTqEVWiKer3tahYK1mFhWVfCeKhsacpm1ua0J4T2C
mmDYN1AWWjhPnwFYLKTP6VVqmdeTaIEBfHFniNPWwxq99XxbTERGDnwS/tWRARdT
WrLOHFX8Wy6nwQHKG6pQDcyGhmEtM9zsTRVro+1JmkB9RSSJQHc3i+8b39n13Hkz
n2+E8wfHhJKtrfAWtmzNuwDThHWFq17Zb7fgPyUe9LKcpnfRKXsVR2LEGYM4PgoJ
o3FC2uob9auTToOvFOSaSSUNht2Wlc9SdyUrkxgNBXy0/mCluKf78yuv86bx3Li+
vf/dpvZ7zb96fjUrBRsqiCpDrHyT4fCtqO6tf/zVcomafTyNGxEkXIH/jyLPb/Oi
uLRYGCzqM9Rheme9Q3Dc9y3PRv9wzfjSQZI8Usca9KLBWU3mmeCYndhXpmmXgu6K
j1/WMdNOaAWzczHOspmy9Fp70IfCfI1YgT4mhtMmXraKr6q3JoQHIsSDG/jn4dbn
/SlcB0c4FNhrS9Xb3FcVlK6KKGMulOswl6zifzUH4rF1DRTDTZBbso+9BxoXJ8nL
9jlJ5KHTWIxx73a0KFBldGVyIEhvZ2cgPHBldGVyQHRyaXBsZWF1Z2h0ZGVzaWdu
LmNvbT6JAlQEEwEKAD4CGwMFCwkIBwMFFQoJCAsFFgIDAQACHgECF4AWIQRSSSQS
oRkPwIfqDx1wsiD/jSrPKQUCamA01wUJFwuQ8AAKCRBwsiD/jSrPKQWnD/43v7TX
D4WkW5LKgttSnMwfHCem/kTFwudKQCz37w1VpcbGZMdP7Xh4zW/zrDK8vaPq4MY+
mRUqF5pY5yFUrjdaPvwujZ8l2Pxw3riGGpeUb551uNtG/Qg3XoANjNpN+pkPFufJ
bJK1Ej6tXwhn36QiMIzv4oE428P60bZxKDz7t2K6ElJFIQoPnDOlgw5LPF6FhRmX
PpKtgPies8K2prmmoXNLz9Q256pPfAL/9pKP+I0w9Imxglsa3lpFHaMq1bXcFCE1
Hswx8t7HcwQZxLi4ARSwnfHiopZnO0qT2qK9/nsjGf5xNqqwH2InrT49sq9jEExy
bmN4fz4EmA8TcSWLnNoo2gIDtM+nQwTnrm1mojtVBRySPOgUnA/NAIon7gcCAvEX
5joAqiuS6hd1Xz72hB1KrbekUBSq1RBZ3jkPvV7IMZ4GVXJcfdadrjudustlW54k
Z642RuR3S+3BZNpjs7FeDgcfuMEq12fDKlzbz0ty7CgKONWMCQDSrt9lbgaj6ipQ
lYOb8JrQNgOzeahFr+WG9KHcfgnONuwpgEn2adiL9hgegv03LtYDvr31hikJrhKw
KbA5oPZ4FTDRkGR1h06RQuz9dcvvhGhnWnKzGntxAkUAWjCZiUmdPQq0rEJuWQST
7yc4lnNpX4HyrzeAuJtUC4mClJyGTAONX6HRp7QeUGlnIE1vbmtleSA8cG1AcGln
LW1vbmtleS5jb20+iQJUBBMBCgA+AhsDBQsJCAcDBRUKCQgLBRYCAwEAAh4BAheA
FiEEUkkkEqEZD8CH6g8dcLIg/40qzykFAmpgNNgFCRcLkPAACgkQcLIg/40qzymS
eg/9E8pbwPal0A6+AjNfS/XuhlSZBDIvi5t6EzJOKQBlm11XwkULzwN4QrNk5ZVN
PVnruBprEyv22AAHmdg4jDOLyvELW4LTjjC/5VJb9jui595UnnJBpT3l5/zT2PFG
uhOWNLe5rd4G1bE0I+heXt50So9a574VG2Y9jkOII378DIaw8uptFEZI8cA6S4rx
e0rD2mMGktqs6BKLPa93DEcTJsKqh2uZutadiWUPUVD4dtulso0fbDn5U6P27RaK
gdqil6K2nnIBYc1koMBG+JIwGUkKL07W6IT9LUlilTXQB+hOtcR7e329AQ/5ChQ/
AL3Klha9bMQym3J2V7VVRbfSB5MsRgHaN+3qRwAATui7ApG43dEGin7idY+aOy7B
WTr4hDjl5xF9d6OC07Ekua6bhoCmdvJfe+erzzBKap1e0AcQYpy3g1Z4mdphhxvj
XO5pcdgiux14qj8vikv5pD6c0kjYuBurKqTDk9sct9EUefwctYB+SM2hDUIKmN41
A1AdDu2bDZnznQTL/vZOQrRkg9kxSSShkDvTpalHUARz+R/If0RYOQg7fn3T91wg
P/vUPvPWYoSQflICl9MrHvW0swMn/5/eOb2OjEus3uKg5AbMF3psuMzllmttvaIy
fhFAuR+JFKwZX8TOGs1U76M2vUK7rOtwU6b9h49jyvlUHS65AQ0EVVbNhQEIAN1M
K3Xildxf1lP4e89n8rQTbMnoxDdPRPlceqBmKeVa7MTXcL3oLMIU9HrcRSOwXl67
9MooNsvjbyAjxTo8Su04xBFGGOshZB1GTfh0UUiW+AxJg/0/doiPQ9N0ciSAMdja
LSqVeUcyRwVYpUVCWoFmT5/Znw1RWmbwMUsRAW+6V3ujC9C8oBEtKIba4h/kCMTi
Di26XjciA92xEiQXsu+bdDQbJIneWMvYiDM+1FuZ/gmvKYSDyvJV/2shr1jGDFKk
ivf2VHEdcLQ3QES9rn3MvwkTTxa6H17sdZCdncREENrq1Ua072SZ9b3AOPAI5b/2
mIBYb59oTdQbYM8NVR0AEQEAAYkDWwQYAQoAJgIbAhYhBFJJJBKhGQ/Ah+oPHXCy
IP+NKs8pBQJqYDUEBQkXC5B/ASnAXSAEGQEKAAYFAlVWzYUACgkQVOmYrGGLwTfb
4Qf/a7kz69x1V3PTjxb2HDrUmlxuuMhsl+q0Rpin3/YnERLWTj8RxkLEqJUXQt7g
iYruK0BHbvsvtzUKr34rduQE7ufnCey6vDwhIZDqFhaLEbaFPvcGil6q2j/MpezR
HisiW5cFEGfNqpQNvHcI6LJ8iz3JN7dZ+1ztSh2VHdpRyYUthFTZHHCd/3Y/GoLN
/jcZ/TcGkkUB+JL2XvOlza8sOdmI9MA5e6qQga65uJ2I3Jigi7XJkB53ytSY0or4
LnpNtJ+qDkwOI3NxmcuyEm7nkjDJoi5+xVAkeHURE0zTHJIXP5fGIOnEVbSBfmdN
uFSvpuap4zBvGUf84t6WeaCjQQkQcLIg/40qzymsYA/+NBX0JcWDecvXYLMUdSan
m7aqveDhByHAvpaEc5Lu6KY6oirXPxWL8+OWeafvCaN9SKs/F5ecLxyE8iS/Y4qO
00uUaa5oxuOitziXlIwwLM2HDGElDOO+TDQ6Uiemw/QTWkvD79bYG2/Koj7abdxT
g82Vm3go7baS3+CB+sJ0mmMDvYgQSwSioRSBOLhFxw0vah58C0dNyLuMBJWBBwJj
D9PpEMeMBaLhWm86/qI6YvKl9EMZ9SDq8lBMMPeHlymnydBzVrNH/QUwdnUIdeGS
H8hQudPPeRCwd/+cO/oRrqwrKpwK77v8z22/VYhdigyEIW5OnWkc5rT1C7M/GGk1
Durted5OWNJWvAG4LJUvQFbWIm1vTpMR5rky0XXyVAABL88ThvEr77gCTLi7Axa/
dvj/nB0ubbZidxfJcUEBf51zODsf0DRL+vLdlAQeVn8rZacAM87trKQhJ/82kupo
WQtiYMmz8NJ9E57Wg9Q75UIeQ2YzWSgsXBsXWN2xVLuJpSioJphvBBejBtmzn8lb
n66GZSXaBty4Y3TdkVK39Rf8zp6ZIyzGAVUV69Flm6s66NvZSiQNipn/z87PdWSz
dzVe8Cjf50DsDNIIxrcal99nLJOYkhuvf+Q55rUPy1Goark9RIjCNA8oQOn6azZn
yp7DClDl60zkB0DFxclZbZ65AQ0EVVbNlQEIAMNAie7VvxmmIAKkQFCuPgUdULQR
0ManWAeaqaJLFx0aV0X28ImBWgNMcZQ2/c9oZ6TFv+3LZMd+bP+lGk81oN4UD8QQ
4jzCfSy47MOC+xiHp/gef+rJbJagA+PM4TJr2tqLsGONDwsxRBmONTnVMqP9C0C0
bT/IYc0X0wiCMtSnljjSyvW65Hk/Mgtl9Kysj/h0mmWtqvvQLXuqkiRl7ok8EFYZ
Woi/xdTB3Ent11dp5DedONaC8kRGDbd6faiIZ7F9KdfoM/F1KiDOJ4hUZSMdQlD3
2MDDniZNH3MDyb+qLtSUAjEBshxcnTfLRCummO5uG2H6I4KfDV0LIV9CCIcAEQEA
AYkCPAQYAQoAJgIbDBYhBFJJJBKhGQ/Ah+oPHXCyIP+NKs8pBQJqYDUEBQkXC5Bv
AAoJEHCyIP+NKs8p1KIQAIeummJnLLgWzK0JcT+uHaNkIEoAHLsoMdKr1boqjlgl
7kmEbRpx5tOmmLBrVc1vIW4rwN1ni8/ezughup9GbjiK8whgxvsogAn3KsOGmy84
9cv3EacliNKuQoY6wEW3TSebC/PhH5jPuJ2Om9x9fOkiEGZX1qGEaTL6XLJKkws7
/wfLvu9ifvT16a3ahuCv/20xYJzQyzr0SI0vGL++XrxauIZzW1wigy1S8EBEWlPJ
dpTlLhQsmtchwJPuLsz27ERLmjyPHtmsMDPvV9MVgozDHLt2ueiVZvOxqu0eRkOk
sr+tkP20DinPZ3ppFCgvWEtOH6gx63JZz5tx9SrMmE6pGak+ucoV8JM/r2pfUOvf
Mlo3jNcFPpYggcicpmYgvQmk+s+hBheywRf9CINKB+uAes7GDPnbcPoSA03UfzUv
FdRiPnhMeQgSCzy/pr+26nDh7WuwWrEtT0bmH6AgfoTOzXWCtl8NcVUe7YBIVL0G
YIs0Q+2AVPBIn2DTUycqtR1F57pet+M+d1XDY+ri7bPtWrTo0Lfr8ym7Ob6GUvyx
HEIK22qqHKiqFUTmHuE0+kUaZJDhyzpAqnR7mSBqrGG100jZ3abqGw5e//6icDJz
0Zrt2GKcNEAxMnqZFDqBEFF1ppxGgBIze9PtomqodIdIlGry/mp40nNbYpbj6hIs
uQENBFVWzaABCADotO5erTRlNWn5fcHjskFdwxDDEaJ3Q/vXfWMK6kpefLA6K3G1
r/TH57lDsXpNIuUwt/61JCu7ShWLqrmBeVkhnPj8eBjRLg6UtFumXXDRCCHHLjd8
nyZqyVHHNd0ygSwC26F+o5s87W2tkZLZjqvym69xLHlIpE2vxndE/Bk/idBm9ZyW
BVANJvEs7CTOpxb+G8C08o6IfcpIP+Qf7P/4ydgNWDWAKWJHbJ+rfzkdsRenfcuN
3WVa47jzItM3K0ZL6C7FB6F1FS3uTG9ahGBOltzfx6WKlnuOKwzLmNl7SE6I2otM
GQv7O7dw4/qWIE8BWHcb6QBtNvwGY29mJ0nXABEBAAGJAjwEGAEKACYCGyAWIQRS
SSQSoRkPwIfqDx1wsiD/jSrPKQUCamA1BQUJFwuQZAAKCRBwsiD/jSrPKaHtD/92
T9q5pWZdQvIrTRmpHuhzFYWAzUAHoRUlZJkCsfxJPiygsOkax0r8d5kzfPs0yIJk
SZYQth0AskOpqRoRPuS7ed4BBYfK/QtXVZkd7fEt5c+bPvbrofaXafFYz48uliMq
x1o540VR8uZRDxMzmwB4w3RjDk16euLqIvXBwx3jzlE1A85Den9JfhQLT6oifvWA
SodZ56lE/AoRpDO2gt4MvB8ojzV4e44Fw6gIDCfbp91mpq9xDaHGBN9HkEn87LU2
D+0wHHVfcBbWw31ALTwShK3lv5+C6iNCkAbZblAr9lveFo5afGo/KoOPQP/eK1NJ
A89PsWmP5V3ldBovn1IZ9bqxDY7z/X28c+jwRIwuqFDKzJGIlSFCx5iCN+6dR5mt
DAJ+KkwzsEX0GwAmKm05kSkPIU0nAd4PvOv13CGUy+qYeyKAoiyI1/oKGiv+lEjh
Ti69IdcJO5UUY8tfKlT5Q45nzcYa9HKuj13iVCHVQvwd6VcGNU9oXBpApJ1dbta9
aMjDJWe2y8+hJ4V9EpgLYiktRI6qNoQzbrP4O7HRgBXEEp8SB+lKIgw7B7nvNKxd
iZj4BubtIH4FsnWWwmZMyaV0MdCPgPSpfaqArL4gdOYyCJcPdLsLLkT1SKM/AgXy
fG6jOrM4KSvmG/JY4/g0FaGkHL2IlQ5R4uN1ewrmPg==
=bUAi
-----END PGP PUBLIC KEY BLOCK-----
